X:1
T:Coventry (Mason), CM
T:Coventry (Mason), CM
T:Arranged by Lowell Mason, 1841
T:Public Domain Courtesy of the Cyber Hymnal™
C:Arranged by Lowell Mason, 1841
Z:Public Domain
Z:Courtesy of the Cyber Hymnal™
%%score ( 1 2 ) ( 3 4 )
L:1/8
M:3/4
K:C
V:1 treble 
V:2 treble 
V:3 bass 
V:4 bass 
V:1
 [EG]2 | [CG]4 [Ec]2 | ([Ec]2 [DB]2) [Cc]2 x | A2 [EG]2 [DF]2 x2 | [DF]2 [CE]2 [EG]2 | %5
 [DG]4 [EG]2 | ([EA]2 [DG]2) [D^F]2 | [DG]6- | [DG]4 [Ec]2 | ([Ec]2 [DB]2) [Fd]2 | %10
 ([Fd]2 [Ec]2) [Ge]2 | ([Ge]2 [Fd]2) [Ec]2 | ([Ec]2 [DB]2) [Gd]2 | [Ge]4 G2 | ([FA]2 [EG]2) [DB]2 | %15
 [Ec]6- | [Ec]4 |] %17
V:2
 x2 | x6 | x7 | CF x6 | x6 | x6 | x6 | x6 | x6 | x6 | x6 | x6 | x6 | x4 G2 | x6 | x6 | x4 |] %17
V:3
 [C,C]2 | [E,G,]4 [C,G,]2 | G,4 F, [E,G,]2 | C4 G,2 [G,,B,]2 | B,2 C2 [C,C]2 | [G,B,]4 [E,B,]2 | %6
 ([C,C]2 [D,B,]2) [D,A,]2 | [G,B,]6- | [G,B,]4 [C,G,]2 | [G,,G,]4 [B,,G,]2 | [C,G,]4 [C,C]2 | %11
 [F,A,]4 [^F,A,]2 | G,4 [G,B,]2 | [C,C]4 [E,C]2 | C4 [G,,G,]2 | [C,G,]6- | [C,G,]4 |] %17
V:4
 x2 | x6 | G,3 x4 | F,2 x6 | C,4 x2 | x6 | x6 | x6 | x6 | x6 | x6 | x6 | G,4 x2 | x6 | %14
 (F,2 G,2) x2 | x6 | x4 |] %17

